X:217
T: O My Dear Judy
N: O'Farrell's Pocket Companion v.3 (Sky ed. p.107)
N: "Irish"
M: 6/8
L: 1/8
R: jig
Q: 320
K: Ador
D| GAB g2e| f/g/af gfe| dBB B2A| dBB B2A|
GAB g2e| f/g/af gfe| dBA A2B| dBA A2 :|
z| GAB/c/ dBB| e/f/ge dBA| GBB B2A| GBB B2A|
GAB/c/ dBB| e/f/ge dBG| EAA A2B| EAA A2B|
GAG dBB| e/f/ge dBG| EAA A2B| dBB B2 f/g/|
aba gfe| fdB g2e| dBA A2B| dBA A2 ||

